plugins/woocommerce/packages/woocommerce-admin/images/marketing/mailchimp.svg

<svg width="36" height="36" viewBox="0 0 36 36" fill="none" xmlns="http://www.w3.org/2000/svg">
<rect width="36" height="36" rx="3" fill="#FFE071"/>
<path d="M24.0534 17.2863C24.2392 17.2638 24.4176 17.2625 24.5813 17.2863C24.6764 17.0647 24.6923 16.6823 24.6071 16.2661C24.4808 15.6471 24.3091 15.2728 23.9546 15.331C23.6002 15.3892 23.5873 15.8374 23.7143 16.4564C23.7848 16.8043 23.9117 17.1023 24.0534 17.2863Z" fill="black"/>
<path d="M21.0119 17.7757C21.2652 17.8889 21.4209 17.9647 21.4823 17.899C21.5215 17.8576 21.5099 17.7794 21.4491 17.6786C21.3241 17.4702 21.0665 17.2587 20.7937 17.1404C20.2357 16.895 19.5697 16.9764 19.0559 17.3532C18.886 17.4802 18.7254 17.6555 18.7487 17.7625C18.756 17.7969 18.7812 17.8232 18.8413 17.8314C18.9811 17.8476 19.4698 17.5954 20.0321 17.5603C20.4294 17.5353 20.7587 17.6624 21.0119 17.7757Z" fill="black"/>
<path d="M20.5024 18.073C20.1725 18.1262 19.9904 18.237 19.8733 18.3409C19.7733 18.4298 19.712 18.5281 19.7126 18.5975C19.7126 18.6307 19.7267 18.6495 19.7378 18.6589C19.7531 18.6726 19.7709 18.6802 19.7923 18.6802C19.8671 18.6802 20.0339 18.6119 20.0339 18.6119C20.4932 18.4442 20.7961 18.4642 21.0966 18.4993C21.2627 18.518 21.3406 18.5287 21.3774 18.4705C21.3884 18.4536 21.4013 18.4179 21.3682 18.3628C21.2903 18.2339 20.9568 18.0179 20.5024 18.073Z" fill="black"/>
<path d="M23.0263 19.1626C23.2501 19.2753 23.4972 19.2309 23.5775 19.0644C23.6578 18.8973 23.5413 18.6713 23.3169 18.5587C23.0925 18.446 22.846 18.4904 22.7657 18.6569C22.6859 18.824 22.8025 19.0506 23.0263 19.1626Z" fill="black"/>
<path d="M24.4673 17.8777C24.2851 17.8746 24.1343 18.0786 24.13 18.3334C24.1257 18.5881 24.2698 18.7971 24.4519 18.8003C24.634 18.8034 24.7849 18.5994 24.7892 18.3446C24.7935 18.0899 24.6494 17.8809 24.4673 17.8777Z" fill="black"/>
<path d="M12.2373 22.4735C12.1919 22.4153 12.1177 22.4335 12.0454 22.4504C11.9951 22.4623 11.9381 22.476 11.8755 22.4748C11.7419 22.4723 11.6284 22.4134 11.5646 22.3139C11.4819 22.1837 11.4868 21.9903 11.5781 21.7682C11.5904 21.7381 11.6051 21.7049 11.6211 21.6686C11.767 21.3344 12.0117 20.7743 11.7369 20.241C11.5303 19.8398 11.1937 19.5895 10.7884 19.5369C10.3996 19.4868 9.99919 19.6339 9.7441 19.9212C9.34124 20.3749 9.27808 20.9921 9.35595 21.2099C9.38477 21.29 9.42892 21.3119 9.46142 21.3163C9.5301 21.3257 9.63127 21.275 9.69505 21.1003C9.69934 21.0878 9.70547 21.0684 9.71344 21.0434C9.74165 20.9514 9.79438 20.7799 9.88084 20.6422C9.98508 20.4763 10.147 20.3618 10.3371 20.3205C10.5308 20.2779 10.7289 20.3161 10.8944 20.4269C11.1765 20.6153 11.285 20.9683 11.1648 21.305C11.1023 21.479 11.0011 21.812 11.0238 22.0855C11.0692 22.6394 11.4028 22.8616 11.7026 22.8854C11.9939 22.8966 12.1981 22.7295 12.2496 22.6075C12.279 22.5361 12.2539 22.4923 12.2373 22.4735Z" fill="black"/>
<path d="M29.0624 21.4609C29.0513 21.4209 28.979 21.1511 28.8796 20.8263C28.7803 20.5015 28.6773 20.2724 28.6773 20.2724C29.0759 19.6634 29.0826 19.1189 29.0299 18.8109C28.9735 18.4285 28.8177 18.1031 28.5031 17.7663C28.1892 17.4296 27.5466 17.0847 26.6434 16.8262C26.5403 16.7968 26.1994 16.7011 26.1694 16.6917C26.1669 16.6717 26.1442 15.5513 26.124 15.0706C26.1093 14.7233 26.0798 14.18 25.9149 13.6455C25.7181 12.922 25.3759 12.2886 24.9479 11.8836C26.1283 10.635 26.8647 9.25926 26.8629 8.07947C26.8592 5.81 24.1293 5.1234 20.7642 6.54542C20.7605 6.54667 20.0565 6.85147 20.051 6.8546C20.048 6.85147 18.7621 5.56402 18.7431 5.5465C14.907 2.13103 2.91255 15.7391 6.7474 19.0444L7.58562 19.7692C7.36794 20.3437 7.28271 21.0028 7.35261 21.7107C7.44213 22.6201 7.90202 23.4926 8.64704 24.166C9.35404 24.8057 10.2842 25.2106 11.1868 25.21C12.6793 28.72 16.0886 30.8737 20.0872 30.9951C24.3758 31.1253 27.9758 29.0711 29.4842 25.3815C29.583 25.1224 30.0018 23.9557 30.0018 22.9255C30.0005 21.8903 29.4272 21.4609 29.0624 21.4609ZM11.5161 24.2236C11.3861 24.2461 11.2531 24.2555 11.1188 24.2518C9.82374 24.2161 8.42445 23.0263 8.28526 21.6143C8.13135 20.054 8.91255 18.8535 10.2953 18.5687C10.4608 18.5349 10.6601 18.5149 10.876 18.5268C11.651 18.57 12.7928 19.1777 13.0534 20.9002C13.2845 22.4261 12.9172 23.9801 11.5161 24.2236ZM10.0696 17.6361C9.20872 17.807 8.45021 18.3052 7.98603 18.9931C7.70887 18.7571 7.19195 18.3002 7.10059 18.1218C6.35986 16.686 7.90877 13.8946 8.99104 12.318C11.6657 8.42245 15.8544 5.4739 17.7939 6.00903C18.1091 6.10041 19.1533 7.33591 19.1533 7.33591C19.1533 7.33591 17.2151 8.43372 15.4172 9.96402C12.9951 11.8667 11.1654 14.6338 10.0696 17.6361ZM23.6657 23.6403C23.694 23.6284 23.7136 23.5952 23.7099 23.5627C23.7056 23.5226 23.6706 23.4932 23.6314 23.4976C23.6314 23.4976 21.6024 23.8043 19.6856 23.0876C19.8941 22.3948 20.4496 22.6451 21.2884 22.714C22.8012 22.806 24.1563 22.5807 25.1582 22.2871C26.0265 22.033 27.1664 21.5317 28.0525 20.8182C28.3511 21.4879 28.4565 22.2252 28.4565 22.2252C28.4565 22.2252 28.6877 22.1832 28.8809 22.304C29.0636 22.4186 29.1973 22.657 29.1059 23.2735C28.9195 24.4252 28.44 25.3596 27.6343 26.2196C27.1437 26.7585 26.5477 27.2273 25.8665 27.5684C25.5047 27.7624 25.119 27.9301 24.7118 28.0659C21.6735 29.0786 18.5628 27.9652 17.5603 25.5737C17.4799 25.394 17.4125 25.2056 17.3592 25.0091C16.9318 23.4331 17.2948 21.5423 18.4285 20.3525V20.3519C18.4984 20.2761 18.5696 20.1866 18.5696 20.0746C18.5696 19.9807 18.5113 19.8818 18.4604 19.8111C18.0637 19.224 16.6896 18.2232 16.9655 16.2861C17.1635 14.8948 18.3556 13.9146 19.4673 13.9728C19.5611 13.9778 19.6549 13.9835 19.7487 13.9891C20.2307 14.0179 20.6507 14.0811 21.0468 14.098C21.7103 14.1274 22.3069 14.0285 23.0139 13.4277C23.2525 13.2249 23.4438 13.049 23.7669 12.9933C23.8006 12.9877 23.8853 12.9564 24.0545 12.9645C24.2268 12.9739 24.3911 13.0221 24.5389 13.1222C25.1055 13.5072 25.1858 14.4391 25.2153 15.1213C25.2318 15.5106 25.2778 16.4526 25.2937 16.7224C25.3299 17.3407 25.4887 17.4277 25.8113 17.536C25.9922 17.5967 26.1608 17.6424 26.4085 17.7131C27.1584 17.9278 27.603 18.1462 27.8838 18.426C28.0512 18.6013 28.1285 18.7872 28.153 18.9643C28.2413 19.6227 27.6521 20.4364 26.0921 21.1755C24.3868 21.9836 22.3174 22.1882 20.888 22.0255C20.7783 22.013 20.3883 21.9679 20.3871 21.9679C19.2435 21.8108 18.591 23.3192 19.2778 24.3525C19.7199 25.0185 20.9248 25.4522 22.1303 25.4522C24.8939 25.4529 27.0186 24.248 27.8084 23.2078C27.8323 23.1765 27.8342 23.1734 27.8716 23.1158C27.9102 23.0557 27.8783 23.0232 27.8299 23.057C27.1842 23.5076 24.3169 25.2976 21.2492 24.7594C21.2492 24.7594 20.8764 24.6968 20.5361 24.5616C20.2656 24.4546 19.6997 24.1886 19.631 23.5958C22.107 24.3788 23.6657 23.6403 23.6657 23.6403ZM19.7444 23.1677C19.7444 23.1684 19.7444 23.1684 19.7444 23.1677C19.745 23.169 19.745 23.169 19.745 23.1696C19.745 23.169 19.7444 23.1684 19.7444 23.1677ZM15.0088 12.3023C15.9599 11.1807 17.1304 10.2056 18.1784 9.65858C18.2145 9.6398 18.2532 9.67986 18.2336 9.71616C18.1502 9.87013 17.9901 10.1993 17.9392 10.4497C17.9313 10.4885 17.9729 10.5179 18.0048 10.4954C18.6573 10.0416 19.7916 9.55531 20.7875 9.49272C20.8304 9.49022 20.8506 9.54592 20.8169 9.57283C20.6654 9.69113 20.4999 9.85511 20.3791 10.021C20.3582 10.0491 20.3779 10.0898 20.4122 10.0898C21.1112 10.0948 22.0966 10.3446 22.7386 10.712C22.7821 10.737 22.7509 10.8227 22.7024 10.8115C21.7305 10.5843 20.1406 10.4115 18.488 10.8227C17.0133 11.1901 15.8875 11.7572 15.0665 12.3668C15.0254 12.3981 14.9757 12.3418 15.0088 12.3023Z" fill="black"/>
</svg>

<svg width="36" height="36" fill="none" xmlns="http://www.w3.org/2000/svg"><rect width="36" height="36" rx="3" fill="#FFE071"/><path d="M24.053 17.286c.186-.022.365-.024.528 0 .095-.221.111-.604.026-1.02-.126-.619-.298-.993-.652-.935-.355.058-.368.506-.24 1.125.07.348.197.646.338.83zM21.012 17.776c.253.113.409.189.47.123.04-.041.028-.12-.033-.22-.125-.209-.383-.42-.655-.539a1.757 1.757 0 0 0-1.738.213c-.17.127-.33.302-.307.41.007.034.032.06.092.068.14.017.629-.236 1.191-.27.397-.026.727.101.98.215zM20.502 18.073c-.33.053-.512.164-.629.268-.1.089-.161.187-.16.256a.079.079 0 0 0 .08.083c.074 0 .24-.068.24-.068.46-.168.763-.148 1.064-.113.166.019.244.03.28-.028.011-.017.024-.053-.009-.108-.078-.13-.411-.345-.866-.29zM23.026 19.163c.224.112.471.068.552-.099.08-.167-.037-.393-.261-.505-.224-.113-.471-.069-.551.098-.08.167.037.394.26.506zM24.467 17.878c-.182-.003-.333.2-.337.455-.004.255.14.464.322.467.182.003.333-.2.337-.455.005-.255-.14-.464-.322-.467zM12.237 22.474c-.045-.059-.12-.04-.192-.024-.05.012-.107.026-.17.025a.367.367 0 0 1-.31-.161c-.083-.13-.078-.324.013-.546l.043-.1c.146-.334.39-.894.116-1.427-.207-.401-.543-.651-.949-.704-.388-.05-.789.097-1.044.384-.403.454-.466 1.071-.388 1.289.029.08.073.102.105.106.07.01.17-.041.234-.216l.018-.057c.029-.092.081-.263.168-.4a.717.717 0 0 1 1.014-.215c.282.187.39.54.27.877-.063.174-.164.507-.141.78.045.554.379.777.679.8.29.012.495-.155.547-.277.029-.072.004-.116-.013-.134z" fill="#000"/><path d="M29.062 21.46c-.01-.04-.083-.309-.182-.634-.1-.325-.203-.554-.203-.554.399-.609.406-1.153.353-1.461-.056-.383-.212-.708-.527-1.045-.314-.336-.956-.681-1.86-.94l-.474-.134c-.002-.02-.025-1.14-.045-1.621-.015-.348-.044-.891-.21-1.425-.196-.724-.538-1.357-.966-1.762 1.18-1.249 1.917-2.625 1.915-3.805-.004-2.269-2.734-2.956-6.099-1.534-.003.002-.707.306-.713.31l-1.308-1.309C14.907 2.131 2.913 15.74 6.747 19.044l.839.725a4.28 4.28 0 0 0-.233 1.942c.09.91.549 1.782 1.294 2.455.707.64 1.637 1.045 2.54 1.044 1.492 3.51 4.902 5.664 8.9 5.785 4.289.13 7.889-1.924 9.397-5.614.099-.259.518-1.425.518-2.456-.002-1.035-.575-1.464-.94-1.464zm-17.546 2.764c-.13.022-.263.032-.397.028-1.295-.036-2.695-1.226-2.834-2.638-.154-1.56.628-2.76 2.01-3.045.166-.034.365-.054.581-.042.775.043 1.917.65 2.177 2.373.231 1.526-.136 3.08-1.537 3.324zm-1.446-6.588c-.861.171-1.62.67-2.084 1.357-.277-.236-.794-.693-.885-.871-.741-1.436.808-4.227 1.89-5.804 2.675-3.896 6.863-6.844 8.803-6.309.315.091 1.36 1.327 1.36 1.327s-1.939 1.098-3.737 2.628c-2.422 1.903-4.252 4.67-5.347 7.672zm13.596 6.004a.077.077 0 0 0 .044-.077.072.072 0 0 0-.079-.065s-2.029.306-3.945-.41c.208-.693.764-.443 1.602-.374a11.493 11.493 0 0 0 3.87-.427c.868-.254 2.008-.755 2.894-1.469.3.67.404 1.407.404 1.407s.232-.042.425.079c.183.115.316.353.225.97-.187 1.151-.666 2.086-1.472 2.946a6.09 6.09 0 0 1-1.768 1.348 7.391 7.391 0 0 1-1.154.498c-3.038 1.013-6.15-.1-7.152-2.492a3.848 3.848 0 0 1-.2-.565c-.428-1.576-.065-3.467 1.069-4.657.07-.076.14-.165.14-.277a.496.496 0 0 0-.109-.264c-.396-.587-1.77-1.588-1.495-3.525.198-1.391 1.39-2.371 2.502-2.313l.282.016c.482.029.902.092 1.298.109.663.03 1.26-.07 1.967-.67.239-.203.43-.379.753-.435.034-.005.118-.037.288-.029a.94.94 0 0 1 .484.158c.566.385.647 1.317.676 2 .017.389.063 1.33.079 1.6.036.619.195.706.517.814.181.06.35.106.598.177.75.215 1.194.433 1.475.713a.958.958 0 0 1 .269.538c.088.659-.5 1.472-2.06 2.212-1.706.808-3.776 1.012-5.205.85l-.5-.058c-1.145-.157-1.797 1.351-1.11 2.384.442.666 1.647 1.1 2.852 1.1 2.764 0 4.889-1.204 5.678-2.244.024-.031.026-.035.064-.092.038-.06.006-.093-.042-.059-.646.45-3.513 2.24-6.58 1.702 0 0-.374-.062-.714-.197-.27-.107-.836-.373-.905-.966 2.476.783 4.035.044 4.035.044zm-3.922-.472.001.002v-.002zM15.01 12.302c.95-1.121 2.121-2.096 3.17-2.643.036-.02.074.02.055.057-.084.154-.244.483-.295.734-.008.039.034.068.066.045.652-.453 1.787-.94 2.783-1.002.042-.003.063.053.029.08a2.38 2.38 0 0 0-.438.448c-.02.028-.001.069.033.069.7.005 1.685.255 2.327.622.043.025.012.11-.037.1-.972-.228-2.561-.4-4.214.01-1.475.368-2.6.935-3.421 1.545-.042.031-.091-.025-.058-.065z" fill="#000"/></svg>
